images/scriggo.svg

<?xml version="1.0" encoding="UTF-8" standalone="no"?>
<!-- Created with Inkscape (http://www.inkscape.org/) -->

<svg
   xmlns:dc="http://purl.org/dc/elements/1.1/"
   xmlns:cc="http://creativecommons.org/ns#"
   xmlns:rdf="http://www.w3.org/1999/02/22-rdf-syntax-ns#"
   xmlns:svg="http://www.w3.org/2000/svg"
   xmlns="http://www.w3.org/2000/svg"
   xmlns:sodipodi="http://sodipodi.sourceforge.net/DTD/sodipodi-0.dtd"
   xmlns:inkscape="http://www.inkscape.org/namespaces/inkscape"
   width="61.699745mm"
   height="18.015816mm"
   viewBox="0 0 61.699745 18.015816"
   version="1.1"
   id="svg843"
   inkscape:version="0.92.3 (2405546, 2018-03-11)"
   sodipodi:docname="scriggo-gold.svg">
  <defs
     id="defs837" />
  <sodipodi:namedview
     id="base"
     pagecolor="#ffffff"
     bordercolor="#666666"
     borderopacity="1.0"
     inkscape:pageopacity="0.0"
     inkscape:pageshadow="2"
     inkscape:zoom="2.8"
     inkscape:cx="132.71989"
     inkscape:cy="36.731094"
     inkscape:document-units="mm"
     inkscape:current-layer="layer1"
     showgrid="false"
     fit-margin-top="0"
     fit-margin-left="0"
     fit-margin-right="0"
     fit-margin-bottom="0"
     inkscape:window-width="2560"
     inkscape:window-height="1369"
     inkscape:window-x="0"
     inkscape:window-y="0"
     inkscape:window-maximized="1" />
  <metadata
     id="metadata840">
    <rdf:RDF>
      <cc:Work
         rdf:about="">
        <dc:format>image/svg+xml</dc:format>
        <dc:type
           rdf:resource="http://purl.org/dc/dcmitype/StillImage" />
        <dc:title></dc:title>
      </cc:Work>
    </rdf:RDF>
  </metadata>
  <g
     inkscape:label="Livello 1"
     inkscape:groupmode="layer"
     id="layer1"
     transform="translate(-59.406113,-89.265547)">
    <path
       style="font-style:normal;font-variant:normal;font-weight:500;font-stretch:normal;font-size:19.18617249px;line-height:125%;font-family:Ubuntu;-inkscape-font-specification:'Ubuntu, Medium';font-variant-ligatures:normal;font-variant-caps:normal;font-variant-numeric:normal;font-feature-settings:normal;text-align:start;letter-spacing:-0.5291667px;word-spacing:0px;writing-mode:lr-tb;text-anchor:start;fill:#e6a62f;fill-opacity:0.94117647;stroke:none;stroke-width:1.8128581px;stroke-linecap:butt;stroke-linejoin:miter;stroke-opacity:1"
       d="M 104.37109 0 C 102.87246 0 101.59284 0.48431077 100.5293 1.4511719 C 99.465748 2.4180355 98.933594 3.7474443 98.933594 5.4394531 C 98.933594 7.0831167 99.465748 8.386652 100.5293 9.3535156 C 101.59284 10.320377 102.87246 10.804688 104.37109 10.804688 C 105.82139 10.804688 107.07903 10.320377 108.14258 9.3535156 C 109.20613 8.386652 109.73828 7.0831167 109.73828 5.4394531 C 109.73828 3.7474443 109.20613 2.4180355 108.14258 1.4511719 C 107.07903 0.48431077 105.82139 0 104.37109 0 z M 18.564453 3.0449219 C 13.150023 3.0449219 8.8708174 4.3504103 5.7285156 6.9609375 C 2.5862139 9.5231221 1.015625 13.076839 1.015625 17.621094 C 1.015625 19.796532 1.3783704 21.658097 2.1035156 23.205078 C 2.877006 24.752056 3.8675923 26.081468 5.0761719 27.193359 C 6.3330916 28.305251 7.7581922 29.247994 9.3535156 30.021484 C 10.997182 30.746632 12.689336 31.422321 14.429688 32.050781 C 16.170039 32.630898 17.718658 33.236775 19.072266 33.865234 C 20.425873 34.445352 21.56195 35.097118 22.480469 35.822266 C 23.44733 36.499068 24.170865 37.272402 24.654297 38.142578 C 25.186071 39.012754 25.453125 40.053137 25.453125 41.261719 C 25.453125 43.292131 24.703714 44.862723 23.205078 45.974609 C 21.70644 47.086496 19.31272 47.642578 16.025391 47.642578 C 12.883086 47.642578 10.200346 47.279828 7.9765625 46.554688 C 5.7527792 45.829547 3.9888561 45.104072 2.6835938 44.378906 L 0 51.847656 C 0.58011969 52.18605 1.3534514 52.572713 2.3203125 53.007812 C 3.2871736 53.394559 4.4232507 53.781222 5.7285156 54.167969 C 7.0821232 54.554791 8.6048662 54.86969 10.296875 55.111328 C 12.037226 55.401369 13.946635 55.546875 16.025391 55.546875 C 22.213309 55.546875 26.903106 54.313143 30.09375 51.847656 C 33.33274 49.333817 34.951172 45.805971 34.951172 41.261719 C 34.951172 38.892902 34.614305 36.885854 33.9375 35.242188 C 33.260697 33.550179 32.268156 32.099202 30.962891 30.890625 C 29.705971 29.633705 28.135382 28.571348 26.25 27.701172 C 24.412961 26.782651 22.310218 25.887754 19.941406 25.017578 C 18.587799 24.534146 17.330156 24.025913 16.169922 23.494141 C 15.05803 22.962366 14.067441 22.382369 13.197266 21.753906 C 12.375433 21.125446 11.723666 20.425834 11.240234 19.652344 C 10.805148 18.830511 10.587891 17.861892 10.587891 16.75 C 10.587891 14.912963 11.263582 13.487863 12.617188 12.472656 C 14.019138 11.457452 15.95247 10.949219 18.417969 10.949219 C 20.496724 10.949219 22.503775 11.192352 24.4375 11.675781 C 26.419567 12.159213 28.23329 12.858825 29.876953 13.777344 L 32.705078 6.3808594 C 31.303128 5.5590263 29.367843 4.8096175 26.902344 4.1328125 C 24.48519 3.4076673 21.706755 3.0449219 18.564453 3.0449219 z M 57.175781 15.589844 C 54.275193 15.589844 51.666172 16.098077 49.345703 17.113281 C 47.025234 18.128488 45.042104 19.529665 43.398438 21.318359 C 41.803114 23.107056 40.571348 25.235673 39.701172 27.701172 C 38.830996 30.118326 38.394531 32.72735 38.394531 35.53125 C 38.394531 38.383493 38.781197 41.044266 39.554688 43.509766 C 40.328175 45.926925 41.490129 48.02966 43.037109 49.818359 C 44.632433 51.558706 46.613611 52.935966 48.982422 53.951172 C 51.399578 54.918025 54.22781 55.400391 57.466797 55.400391 C 59.545552 55.400391 61.55065 55.207059 63.484375 54.820312 C 65.466442 54.433566 66.941342 53.999052 67.908203 53.515625 L 66.675781 46.263672 C 65.612232 46.698771 64.35459 47.061496 62.904297 47.351562 C 61.454004 47.641603 59.981057 47.787109 58.482422 47.787109 C 54.469942 47.787109 51.61779 46.698858 49.925781 44.523438 C 48.233772 42.299639 47.386719 39.302007 47.386719 35.53125 C 47.386719 31.615458 48.281616 28.595845 50.070312 26.46875 C 51.859007 24.293309 54.469983 23.205078 57.902344 23.205078 C 59.352637 23.205078 60.705968 23.350566 61.962891 23.640625 C 63.268156 23.930684 64.428156 24.291476 65.443359 24.726562 L 67.328125 17.548828 C 64.137478 16.243566 60.75317 15.589844 57.175781 15.589844 z M 214.99414 15.589844 C 212.33527 15.589844 209.8937 16.074155 207.66992 17.041016 C 205.44612 17.959534 203.51281 19.288943 201.86914 21.029297 C 200.27383 22.769648 199.01814 24.872391 198.09961 27.337891 C 197.22944 29.755045 196.79297 32.461711 196.79297 35.458984 C 196.79297 38.456258 197.22944 41.188805 198.09961 43.654297 C 199.01814 46.119809 200.27383 48.222544 201.86914 49.962891 C 203.46448 51.703237 205.37388 53.056559 207.59766 54.023438 C 209.82143 54.990291 212.28692 55.474609 214.99414 55.474609 C 217.70134 55.474609 220.16683 54.990291 222.39062 54.023438 C 224.66275 53.056559 226.59609 51.703237 228.19141 49.962891 C 229.78674 48.222544 231.02045 46.119809 231.89062 43.654297 C 232.7608 41.188805 233.19531 38.456258 233.19531 35.458984 C 233.19531 32.461711 232.73689 29.755045 231.81836 27.337891 C 230.94819 24.872391 229.71445 22.769648 228.11914 21.029297 C 226.5238 19.288943 224.59049 17.959534 222.31836 17.041016 C 220.09459 16.074155 217.65301 15.589844 214.99414 15.589844 z M 87.566406 15.736328 C 84.472447 15.736328 81.644216 16.025352 79.082031 16.605469 C 76.568189 17.137243 74.465446 17.717243 72.773438 18.345703 L 72.773438 54.458984 L 81.546875 54.458984 L 81.546875 24.074219 C 81.981962 23.929178 82.731373 23.759767 83.794922 23.566406 C 84.906814 23.37302 85.945246 23.277344 86.912109 23.277344 C 88.604118 23.277344 90.079018 23.422832 91.335938 23.712891 C 92.641202 23.954609 93.657667 24.195787 94.382812 24.4375 L 95.904297 17.041016 C 95.469208 16.89599 94.889208 16.750502 94.164062 16.605469 C 93.438915 16.41209 92.689506 16.266602 91.916016 16.169922 C 91.142528 16.024914 90.369194 15.929212 89.595703 15.880859 C 88.822213 15.784179 88.146523 15.736328 87.566406 15.736328 z M 134.59766 15.736328 C 131.64873 15.736328 129.01383 16.194763 126.69336 17.113281 C 124.37289 18.031802 122.38976 19.313368 120.74609 20.957031 C 119.15077 22.600697 117.91901 24.581873 117.04883 26.902344 C 116.227 29.222812 115.81445 31.76202 115.81445 34.517578 C 115.81445 37.466507 116.20307 40.075533 116.97656 42.347656 C 117.7984 44.571455 118.9086 46.433008 120.31055 47.931641 C 121.76084 49.430274 123.47692 50.566351 125.45898 51.339844 C 127.4894 52.113337 129.71371 52.5 132.13086 52.5 C 133.9679 52.5 135.58828 52.282755 136.99023 51.847656 C 138.44053 51.412557 139.60053 50.978043 140.4707 50.542969 L 140.4707 51.992188 C 140.4707 54.844446 139.72129 56.996985 138.22266 58.447266 C 136.72402 59.897571 134.21069 60.623047 130.68164 60.623047 C 128.45786 60.623047 126.37904 60.429715 124.44531 60.042969 C 122.55993 59.656222 120.86778 59.147991 119.36914 58.519531 L 117.77344 65.988281 C 119.56213 66.616741 121.54331 67.124972 123.71875 67.511719 C 125.94253 67.898465 128.21469 68.091797 130.53516 68.091797 C 136.8681 68.091797 141.5579 66.688671 144.60352 63.884766 C 147.69747 61.080885 149.24414 56.658119 149.24414 50.615234 L 149.24414 17.765625 C 147.45545 17.282193 145.28093 16.823758 142.71875 16.388672 C 140.15656 15.953583 137.4499 15.736328 134.59766 15.736328 z M 175.08594 15.736328 C 172.137 15.736328 169.50212 16.194763 167.18164 17.113281 C 164.86119 18.031802 162.87999 19.313368 161.23633 20.957031 C 159.64099 22.600697 158.40728 24.581873 157.53711 26.902344 C 156.71529 29.222812 156.30469 31.76202 156.30469 34.517578 C 156.30469 37.466507 156.69135 40.075533 157.46484 42.347656 C 158.28666 44.571455 159.39883 46.433008 160.80078 47.931641 C 162.25109 49.430274 163.96716 50.566351 165.94922 51.339844 C 167.97963 52.113337 170.20393 52.5 172.62109 52.5 C 174.45812 52.5 176.07656 52.282755 177.47852 51.847656 C 178.92882 51.412557 180.08881 50.978043 180.95898 50.542969 L 180.95898 51.992188 C 180.95898 54.844446 180.20957 56.996985 178.71094 58.447266 C 177.21228 59.897571 174.69897 60.623047 171.16992 60.623047 C 168.94615 60.623047 166.86733 60.429715 164.93359 60.042969 C 163.04821 59.656222 161.35605 59.147991 159.85742 58.519531 L 158.26172 65.988281 C 160.05039 66.616741 162.03354 67.124972 164.20898 67.511719 C 166.43278 67.898465 168.70494 68.091797 171.02539 68.091797 C 177.35834 68.091797 182.04813 66.688671 185.09375 63.884766 C 188.1877 61.080885 189.73438 56.658119 189.73438 50.615234 L 189.73438 17.765625 C 187.9457 17.282193 185.76922 16.823758 183.20703 16.388672 C 180.64484 15.953583 177.93817 15.736328 175.08594 15.736328 z M 100.02148 16.533203 L 100.02148 54.458984 L 108.79492 54.458984 L 108.79492 16.533203 L 100.02148 16.533203 z M 134.66992 23.060547 C 136.07187 23.060547 137.23187 23.132311 138.15039 23.277344 C 139.06891 23.374024 139.84224 23.495592 140.4707 23.640625 L 140.4707 43.291016 C 139.69721 43.822795 138.68075 44.283175 137.42383 44.669922 C 136.21525 45.056668 134.91172 45.25 133.50977 45.25 C 130.94758 45.25 128.84484 44.402956 127.20117 42.710938 C 125.60585 40.970591 124.80664 38.239997 124.80664 34.517578 C 124.80664 31.085218 125.65369 28.328755 127.3457 26.25 C 129.03771 24.122902 131.47928 23.060547 134.66992 23.060547 z M 175.1582 23.060547 C 176.56016 23.060547 177.72015 23.132311 178.63867 23.277344 C 179.5572 23.374024 180.33052 23.495592 180.95898 23.640625 L 180.95898 43.291016 C 180.18549 43.822795 179.17098 44.283175 177.91406 44.669922 C 176.70547 45.056668 175.4 45.25 173.99805 45.25 C 171.43588 45.25 169.33312 44.402956 167.68945 42.710938 C 166.09411 40.970591 165.29688 38.239997 165.29688 34.517578 C 165.29688 31.085218 166.14197 28.328755 167.83398 26.25 C 169.526 24.122902 171.96758 23.060547 175.1582 23.060547 z M 214.99414 23.205078 C 217.89473 23.205078 220.14297 24.317232 221.73828 26.541016 C 223.38195 28.716456 224.20312 31.688223 224.20312 35.458984 C 224.20313 39.278084 223.38195 42.299639 221.73828 44.523438 C 220.14297 46.747211 217.89473 47.859375 214.99414 47.859375 C 212.09355 47.859375 209.8214 46.747211 208.17773 44.523438 C 206.5824 42.299639 205.78516 39.278084 205.78516 35.458984 C 205.78516 31.688223 206.5824 28.716456 208.17773 26.541016 C 209.8214 24.317232 212.09355 23.205078 214.99414 23.205078 z "
       transform="matrix(0.26458333,0,0,0.26458333,59.406113,89.265547)"
       id="path1439" />
  </g>
</svg>

<svg version="1.1" viewBox="0 0 61.7 18.016" xmlns="http://www.w3.org/2000/svg">
<g transform="translate(-59.406 -89.266)"><path transform="matrix(.26458 0 0 .26458 59.406 89.266)" d="m104.37 0c-1.4986 0-2.7782 0.48431-3.8418 1.4512-1.0636 0.96686-1.5957 2.2963-1.5957 3.9883 0 1.6437 0.53215 2.9472 1.5957 3.9141 1.0635 0.96686 2.3432 1.4512 3.8418 1.4512 1.4503 0 2.7079-0.48431 3.7715-1.4512 1.0636-0.96686 1.5957-2.2704 1.5957-3.9141 0-1.692-0.53215-3.0214-1.5957-3.9883-1.0636-0.96686-2.3212-1.4512-3.7715-1.4512zm-85.807 3.0449c-5.4144 0-9.6936 1.3055-12.836 3.916-3.1423 2.5622-4.7129 6.1159-4.7129 10.66 0 2.1754 0.36275 4.037 1.0879 5.584 0.77349 1.547 1.7641 2.8764 2.9727 3.9883 1.2569 1.1119 2.682 2.0546 4.2773 2.8281 1.6437 0.72515 3.3358 1.4008 5.0762 2.0293 1.7404 0.58012 3.289 1.186 4.6426 1.8145 1.3536 0.58012 2.4897 1.2319 3.4082 1.957 0.96686 0.6768 1.6904 1.4501 2.1738 2.3203 0.53177 0.87018 0.79883 1.9106 0.79883 3.1191 0 2.0304-0.74941 3.601-2.248 4.7129-1.4986 1.1119-3.8924 1.668-7.1797 1.668-3.1423 0-5.825-0.36275-8.0488-1.0879-2.2238-0.72514-3.9877-1.4506-5.293-2.1758l-2.6836 7.4688c0.58012 0.33839 1.3535 0.72506 2.3203 1.1602 0.96686 0.38675 2.1029 0.77341 3.4082 1.1602 1.3536 0.38682 2.8764 0.70172 4.5684 0.94336 1.7404 0.29004 3.6498 0.43555 5.7285 0.43555 6.1879 0 10.878-1.2337 14.068-3.6992 3.239-2.5138 4.8574-6.0417 4.8574-10.586 0-2.3688-0.33687-4.3759-1.0137-6.0195-0.6768-1.692-1.6693-3.143-2.9746-4.3516-1.2569-1.2569-2.8275-2.3193-4.7129-3.1895-1.837-0.91852-3.9398-1.8134-6.3086-2.6836-1.3536-0.48343-2.6112-0.99166-3.7715-1.5234-1.1119-0.53178-2.1025-1.1118-2.9727-1.7402-0.82183-0.62846-1.4736-1.3281-1.957-2.1016-0.43509-0.82183-0.65234-1.7905-0.65234-2.9023 0-1.837 0.67569-3.2621 2.0293-4.2773 1.402-1.0152 3.3353-1.5234 5.8008-1.5234 2.0788 0 4.0858 0.24313 6.0195 0.72656 1.9821 0.48343 3.7958 1.183 5.4395 2.1016l2.8281-7.3965c-1.402-0.82183-3.3372-1.5712-5.8027-2.248-2.4172-0.72515-5.1956-1.0879-8.3379-1.0879zm38.611 12.545c-2.9006 0-5.5096 0.50823-7.8301 1.5234-2.3205 1.0152-4.3036 2.4164-5.9473 4.2051-1.5953 1.7887-2.8271 3.9173-3.6973 6.3828-0.87018 2.4172-1.3066 5.0262-1.3066 7.8301 0 2.8522 0.38667 5.513 1.1602 7.9785 0.77349 2.4172 1.9354 4.5199 3.4824 6.3086 1.5953 1.7403 3.5765 3.1176 5.9453 4.1328 2.4172 0.96685 5.2454 1.4492 8.4844 1.4492 2.0788 0 4.0839-0.19333 6.0176-0.58008 1.9821-0.38675 3.457-0.82126 4.4238-1.3047l-1.2324-7.252c-1.0635 0.4351-2.3212 0.79782-3.7715 1.0879-1.4503 0.29004-2.9232 0.43555-4.4219 0.43555-4.0125 0-6.8646-1.0883-8.5566-3.2637-1.692-2.2238-2.5391-5.2214-2.5391-8.9922 0-3.9158 0.8949-6.9354 2.6836-9.0625 1.7887-2.1754 4.3997-3.2637 7.832-3.2637 1.4503 0 2.8036 0.14549 4.0605 0.43555 1.3053 0.29006 2.4653 0.65085 3.4805 1.0859l1.8848-7.1777c-3.1906-1.3053-6.575-1.959-10.152-1.959zm157.82 0c-2.6589 0-5.1004 0.48431-7.3242 1.4512-2.2238 0.91852-4.1571 2.2479-5.8008 3.9883-1.5953 1.7404-2.851 3.8431-3.7695 6.3086-0.87017 2.4172-1.3066 5.1238-1.3066 8.1211s0.43647 5.7298 1.3066 8.1953c0.91853 2.4655 2.1742 4.5682 3.7695 6.3086 1.5953 1.7403 3.5047 3.0937 5.7285 4.0605 2.2238 0.96685 4.6893 1.4512 7.3965 1.4512s5.1727-0.48432 7.3965-1.4512c2.2721-0.96688 4.2055-2.3202 5.8008-4.0605s2.829-3.8431 3.6992-6.3086c0.87018-2.4655 1.3047-5.198 1.3047-8.1953s-0.45842-5.7039-1.377-8.1211c-0.87017-2.4655-2.1039-4.5682-3.6992-6.3086s-3.5286-3.0698-5.8008-3.9883c-2.2238-0.96686-4.6654-1.4512-7.3242-1.4512zm-127.43 0.14648c-3.094 0-5.9222 0.28902-8.4844 0.86914-2.5138 0.53177-4.6166 1.1118-6.3086 1.7402v36.113h8.7734v-30.385c0.43509-0.14504 1.1845-0.31445 2.248-0.50781 1.1119-0.19339 2.1503-0.28906 3.1172-0.28906 1.692 0 3.1669 0.14549 4.4238 0.43555 1.3053 0.24172 2.3217 0.4829 3.0469 0.72461l1.5215-7.3965c-0.43509-0.14503-1.0151-0.29051-1.7402-0.43555-0.72515-0.19338-1.4746-0.33887-2.248-0.43555-0.77349-0.14501-1.5468-0.24071-2.3203-0.28906-0.77349-0.09668-1.4492-0.14453-2.0293-0.14453zm47.031 0c-2.9489 0-5.5838 0.45844-7.9043 1.377-2.3205 0.91852-4.3036 2.2001-5.9473 3.8438-1.5953 1.6437-2.8271 3.6248-3.6973 5.9453-0.82183 2.3205-1.2344 4.8597-1.2344 7.6152 0 2.9489 0.38862 5.558 1.1621 7.8301 0.82184 2.2238 1.932 4.0854 3.334 5.584 1.4503 1.4986 3.1664 2.6347 5.1484 3.4082 2.0304 0.77349 4.2547 1.1602 6.6719 1.1602 1.837 0 3.4574-0.21724 4.8594-0.65234 1.4503-0.4351 2.6103-0.86961 3.4805-1.3047v1.4492c0 2.8523-0.74941 5.0048-2.248 6.4551-1.4986 1.4503-4.012 2.1758-7.541 2.1758-2.2238 0-4.3026-0.19333-6.2363-0.58008-1.8854-0.38675-3.5775-0.89498-5.0762-1.5234l-1.5957 7.4688c1.7887 0.62846 3.7699 1.1367 5.9453 1.5234 2.2238 0.38675 4.4959 0.58008 6.8164 0.58008 6.3329 0 11.023-1.4031 14.068-4.207 3.094-2.8039 4.6406-7.2266 4.6406-13.27v-32.85c-1.7887-0.48343-3.9632-0.94187-6.5254-1.377-2.5622-0.43509-5.2688-0.65234-8.1211-0.65234zm40.488 0c-2.9489 0-5.5838 0.45844-7.9043 1.377-2.3204 0.91852-4.3016 2.2001-5.9453 3.8438-1.5953 1.6437-2.829 3.6248-3.6992 5.9453-0.82182 2.3205-1.2324 4.8597-1.2324 7.6152 0 2.9489 0.38666 5.558 1.1602 7.8301 0.82182 2.2238 1.934 4.0854 3.3359 5.584 1.4503 1.4986 3.1664 2.6347 5.1484 3.4082 2.0304 0.77349 4.2547 1.1602 6.6719 1.1602 1.837 0 3.4555-0.21724 4.8574-0.65234 1.4503-0.4351 2.6103-0.86961 3.4805-1.3047v1.4492c0 2.8523-0.74941 5.0048-2.248 6.4551-1.4987 1.4503-4.012 2.1758-7.541 2.1758-2.2238 0-4.3026-0.19333-6.2363-0.58008-1.8854-0.38675-3.5775-0.89498-5.0762-1.5234l-1.5957 7.4688c1.7887 0.62846 3.7718 1.1367 5.9473 1.5234 2.2238 0.38675 4.496 0.58008 6.8164 0.58008 6.333 0 11.023-1.4031 14.068-4.207 3.094-2.8039 4.6406-7.2266 4.6406-13.27v-32.85c-1.7887-0.48343-3.9652-0.94187-6.5274-1.377-2.5622-0.43509-5.2689-0.65234-8.1211-0.65234zm-75.064 0.79688v37.926h8.7734v-37.926h-8.7734zm34.648 6.5273c1.402 0 2.562 0.071764 3.4805 0.2168 0.91852 0.09668 1.6918 0.21825 2.3203 0.36328v19.65c-0.77349 0.53178-1.79 0.99216-3.0469 1.3789-1.2086 0.38675-2.5121 0.58008-3.9141 0.58008-2.5622 0-4.6649-0.84704-6.3086-2.5391-1.5953-1.7403-2.3945-4.4709-2.3945-8.1934 0-3.4324 0.84705-6.1888 2.5391-8.2676 1.692-2.1271 4.1336-3.1895 7.3242-3.1895zm40.488 0c1.402 0 2.562 0.071764 3.4805 0.2168 0.91853 0.09668 1.6918 0.21825 2.3203 0.36328v19.65c-0.77349 0.53178-1.788 0.99216-3.0449 1.3789-1.2086 0.38675-2.5141 0.58008-3.916 0.58008-2.5622 0-4.6649-0.84704-6.3086-2.5391-1.5953-1.7403-2.3926-4.4709-2.3926-8.1934 0-3.4324 0.84509-6.1888 2.5371-8.2676 1.692-2.1271 4.1336-3.1895 7.3242-3.1895zm39.836 0.14453c2.9006 0 5.1488 1.1122 6.7441 3.3359 1.6437 2.1754 2.4648 5.1472 2.4648 8.918 1e-5 3.8191-0.82117 6.8407-2.4648 9.0645-1.5953 2.2238-3.8436 3.3359-6.7441 3.3359s-5.1727-1.1122-6.8164-3.3359c-1.5953-2.2238-2.3926-5.2454-2.3926-9.0645 0-3.7708 0.79724-6.7425 2.3926-8.918 1.6437-2.2238 3.9158-3.3359 6.8164-3.3359z" style="fill:#e6a62f"/></g></svg>
